!!!!SEGMENT: Wil3033-Baises_moy_tant_tant_I.krn
!!!id: Wil3033
!!!AGN: Chanson
!!!SCT: Bernstein (1984)
!!!voices: 3
!!!COM: Adrian Willaert
!!!OTL: Baisés moy tant tant I
**kern	**kern	**kern
*part3	*part2	*part1
*staff3	*staff2	*staff1
*I"Bassus	*I"Tenor	*I"Superius
*I'B	*I'T	*I'S
*clefF4	*clefGv2	*clefG2
*k[b-]	*k[b-]	*k[b-]
*F:	*F:	*F:
*M3/1	*M3/1	*M3/1
*met(C|3)	*met(C|3)	*met(C|3)
=1	=1	=1
1.F	1.A	1.cc
2G	2B-y	2b-y
1F	1c	1a
=2	=2	=2
1E	1c	1g
1F	1c	1a
[1F	[1A	[1cc
=3	=3	=3
2F]	2A]	2cc]
2G	2B-y	2b-y
1F	1c	1a
1E	1c	1g
=4	=4	=4
1F	[0.c	0a
1F	.	.
[1A	.	1e
=5	=5	=5
2A]	0c]	1.a
2G	.	.
1F	.	.
.	.	2a
1E	1c	1g
=6	=6	=6
1D	1.f	1a
2BB-y	.	2d
2C	2e	2e
2D	1d	2f
2E	.	2g
=7	=7	=7
1F	1c	1.a
1D	0B-y	.
.	.	4g
.	.	4f
1E	.	1g
=8	=8	=8
1F	0A	1a
1F	.	1.a
1F	[1A	.
.	.	2g
=9	=9	=9
1.A	2A]	1f
.	2B-y	.
.	1c	1e
2G	.	.
1F	1c	1f
=10	=10	=10
1E	0c	1r
1F	.	1.a
1r	[1A	.
.	.	2g
=11	=11	=11
1.A	2A]	1f
.	2B-y	.
.	1c	1e
2G	.	.
1F	1c	1f
=12	=12	=12
1E	0c	1g
1F	.	1a
1A	1c	1cc
=13	=13	=13
1G	1.d	1.b-y
1D	.	.
.	2c	2a
1E	1B-y	1g
=14	=14	=14
1F	1A	1.f
1BB-y	0G	.
.	.	4e
.	.	4d
1C	.	1e
=15	=15	=15
1r	0F	1f
1c	.	1a
[1d	1r	1b-y
=16	=16	=16
2d]	1r	1a
2c	.	.
1B-y	1r	1dd
1A	1c	1cc
=17	=17	=17
1G	1.d	1.b-y
1D	.	.
.	2c	2a
1E	1B-y	1g
=18	=18	=18
1F	1A	1.f
0C	0G	.
.	.	2e
.	.	2e
.	.	4d
.	.	4e
=	=	=
*M2/1	*M2/1	*M2/1
*met(C|)	*met(C|)	*met(C|)
2r	1F	1f
2c	.	.
2.d	1B-y	2r
.	.	2f
4c	.	.
=19	=19	=19
2B-y	2r	2g
2A	2c	2a
1G	2d	1b-y
.	2e	.
=20	=20	=20
1F	1f	2r
.	.	2cc
1B-y	2r	2.dd
.	2f	.
.	.	4cc
=21	=21	=21
2r	2.g	2b-y
2G	.	2dd
.	4f	.
2A	2e	4cc
.	.	4b-y
2A	2f	4a
.	.	4g
=22	=22	=22
1B-y	1d	2f
.	.	4r
.	.	4f
2r	1c	2g
2F	.	2a
=23	=23	=23
2G	2r	2b-y
2A	2c	4a
.	.	4g
2B-y	2d	2f
4A	2e	2g
4G	.	.
=24	=24	=24
2F	1f	2a
2B-y	.	2d
2.c	1r	2e
.	.	[2g
4B-y	.	.
=25	=25	=25
2A	0r	4g]
.	.	4f
2B-y	.	1f
1G	.	.
.	.	2e
=26	=26	=26
1F	2r	2f
.	2f	2a
1r	2.g	2b-y
.	.	[2dd
.	4f	.
=27	=27	=27
1r	2e	4dd]
.	.	4cc
.	2f	1cc
2r	1d	.
2G	.	2bni
=28	=28	=28
2A	1c	2cc
2F	.	4r
.	.	4c
2c	2r	2e
4B-y	4r	2f
4A	4c	.
=29	=29	=29
2G	2d	1g
2C	2e	.
2D	2f	2r
2E	4e	2g
.	4d	.
=30	=30	=30
2F	2c	2a
4E	2d	2f
4D	.	.
2C	2e-X	2g
2F	2d	2a
=31	=31	=31
2.G	2B-y	2.b-y
.	2.d	.
4F	.	4a
2E	.	2g
.	4c	.
2F	[2c	[2a
=32	=32	=32
1D	2c]	2a]
.	2B-y	4g
.	.	4f
1C	4c	2e
.	4B-y	.
.	4A	[2c
.	4G	.
=33	=33	=33
1F	1A	2c]
.	.	2d
2G	1r	2e
2A	.	2f
=34	=34	=34
2B-y	0r	2f
2B-y	.	2.g
2.c	.	.
.	.	4f
.	.	2e
4B-y	.	.
=35	=35	=35
2A	2r	2f
2B-y	2f	1d
2G	2.g	.
[2c	.	[2e
.	4f	.
=36	=36	=36
2c]	2e	4e]
.	.	4c
2F	2f	1cc
1G	1d	.
.	.	2bni
=37	=37	=37
1r	[0c	1cc
1F	.	2r
.	.	2a
=38	=38	=38
2F	1c]	2a
2E	.	2g
2D	1f	1a
2d	.	.
=39	=39	=39
2d	2f	2r
2c	2e	2a
2B-y	1d	2a
2B-y	.	2g
=40	=40	=40
2A	2r	2a
2B-y	2d	2f
2G	2d	2b-y
2B-y	2d	2b-y
=41	=41	=41
2F	2c	2a
2G	2B-y	2g
1D	1A	2.f
.	.	8eL
.	.	8dJ
=42	=42	=42
1F	1A	0c
2F	2A	.
2E	2G	.
=43	=43	=43
2.D	2A	0r
.	2F	.
4D	.	.
2D	2B-y	.
2D	2A	.
=44	=44	=44
2C	2A	1r
2BB-y	2G	.
2AA	1A	1cc
2F	.	.
=45	=45	=45
2F	1r	2cc
2G	.	2b-y
2D	2r	2a
2F	4.A	2a
.	8B-y	.
=46	=46	=46
2F	2c	2a
2F	2c	2a
2C	2c	2g
2D	4.A	2f
.	8B-y	.
=47	=47	=47
1AA	2c	2e
.	2c	4.e
.	.	8f
2r	1c	2g
4.F	.	2a
8F	.	.
=48	=48	=48
2C	2r	2g
2D	4.A	4.f
.	8B-y	8f
2C	2c	2e
4.F	2c	2a
8F	.	.
=49	=49	=49
2E	2c	2g
2F	4.A	4.c
.	8B-y	8d
2C	2c	2e
2F	2c	2f
=50	=50	=50
2.A	1c	2e
.	.	2e
4G	.	.
2F	1r	2.a
2E	.	.
.	.	4g
=51	=51	=51
2D	2r	2f
2C	2c	2e
2r	2.f	2d
2A	.	2c
.	4e	.
=52	=52	=52
2B-y	2d	2r
2A	2c	2e
2d	2B-y	2.f
2c	2A	.
.	.	4e
=53	=53	=53
2B-y	0r	2d
2.A	.	2c
.	.	1B-y
8GL	.	.
8FJ	.	.
2G	.	.
=54	=54	=54
2A	2r	1A
2.F	2c	.
.	2.f	2r
4E	.	.
4D	.	2a
4C	4e	.
=55	=55	=55
2BB-y	2d	2b-y
2C	2c	2.a
2D	1B-y	.
.	.	8gL
.	.	8fJ
2E	.	2g
=56	=56	=56
2F	2A	2a
4.F	4.A	4.cc
8G	8B-y	8b-y
2F	2c	2a
2E	2c	2g
=57	=57	=57
2F	2c	2a
4.F	4.A	4.cc
8G	8B-y	8b-y
2F	2c	2a
2E	2c	2g
=58	=58	=58
0F	2c	1a
.	2f	.
.	2.a	2r
.	.	2cc
.	4g	.
=59	=59	=59
0r	2f	2dd
.	2e	2cc
.	4d	2b-y
.	4e	.
.	[2f	2a
=60	=60	=60
2r	4f]	1g
.	8eL	.
.	8dJ	.
2c	2e	.
2.d	1f	2f
.	.	2a
4c	.	.
=61	=61	=61
2B-y	2r	2g
2A	2c	2f
2G	2.d	2.b-y
2D	.	.
.	4c	4a
=62	=62	=62
2E	2B-y	2g
2F	2A	2.f
1C	1G	.
.	.	8eL
.	.	8dJ
.	.	2e
=63	=63	=63
2r	0F	1f
2c	.	.
2d	.	2r
2c	.	2cc
=64	=64	=64
2B-y	2r	2dd
2A	2c	2cc
2G	2.d	2.b-y
2D	.	.
.	4c	4a
=65	=65	=65
2E	2B-y	2g
2F	2A	2.f
1C	1G	.
.	.	8eL
.	.	8dJ
.	.	2e
=66	=66	=66
00Fl	00Fl	00fl
==	==	==
*-	*-	*-
!!!system-decoration: [*]
!!!RDF**kern: i = editorial accidental
!!!RDF**kern: l = terminal long
!!!ENC: Benjamin Ory
!!!END: 2023/10/1
!!!EED: Benjamin Ory
!!!EEV: 2023/10/01
!!!YEC: Copyright 2023 Benjamin Ory, All Rights Reserved
!!!ONB: Translated from MusicXML on 2023/10/01
